src/assets/icons/cars/doors2_car.svg

<svg width="48" height="48" viewBox="0 0 48 48" fill="none" xmlns="http://www.w3.org/2000/svg">
<g id="Icons / Vertical Cars / Car doors 2">
<path id="Combined Shape" fill-rule="evenodd" clip-rule="evenodd" d="M29.2675 20H19.2675C18.7155 20 18.2675 20.448 18.2675 21C18.2675 21.552 18.7155 22 19.2675 22H29.2675C29.8195 22 30.2675 21.552 30.2675 21C30.2675 20.448 29.8195 20 29.2675 20ZM32.2675 36.0208C32.2675 37.1118 31.3105 37.9998 30.2195 37.9998H18.3155C17.2245 37.9998 16.2675 37.1118 16.2675 36.0208V11.9788C16.2675 10.9038 17.1985 10.0308 18.2675 10.0048V10.9998C18.2675 11.5518 18.7155 11.9998 19.2675 11.9998C19.8195 11.9998 20.2675 11.5518 20.2675 10.9998V9.99982H28.2675V10.9998C28.2675 11.5518 28.7155 11.9998 29.2675 11.9998C29.8195 11.9998 30.2675 11.5518 30.2675 10.9998V10.0048C31.3365 10.0308 32.2675 10.9038 32.2675 11.9788V36.0208ZM38.2685 21.6518L34.2675 17.4568V11.9788C34.2675 9.78182 32.4175 7.99982 30.2195 7.99982H18.3155C16.1185 7.99982 14.2675 9.78182 14.2675 11.9788V17.4568L10.2705 21.6518C9.88849 22.0498 9.91749 22.6828 10.3165 23.0658C10.5105 23.2518 10.7765 23.3448 11.0265 23.3448C11.2885 23.3448 11.5165 23.2418 11.7125 23.0378L14.2675 20.3438V36.0208C14.2675 38.2188 16.1185 39.9998 18.3155 39.9998H30.2195C32.4175 39.9998 34.2675 38.2188 34.2675 36.0208V20.3438L36.8225 23.0378C37.0185 23.2418 37.2635 23.3448 37.5255 23.3448C37.7755 23.3448 38.0165 23.2518 38.2105 23.0658C38.6085 22.6828 38.6515 22.0498 38.2685 21.6518ZM29.2675 33H19.2675C18.7155 33 18.2675 33.448 18.2675 34C18.2675 34.552 18.7155 35 19.2675 35H29.2675C29.8195 35 30.2675 34.552 30.2675 34C30.2675 33.448 29.8195 33 29.2675 33Z" fill="#253238"/>
</g>
</svg>

<svg width="48" height="48" viewBox="0 0 48 48" fill="none" xmlns="http://www.w3.org/2000/svg"><path fill-rule="evenodd" clip-rule="evenodd" d="M29.267 20h-10a1 1 0 000 2h10a1 1 0 000-2zm3 16.02c0 1.092-.957 1.98-2.048 1.98H18.316c-1.09 0-2.048-.888-2.048-1.98V11.98c0-1.075.931-1.948 2-1.974V11a1 1 0 002 0v-1h8v1a1 1 0 002 0v-.995c1.07.026 2 .899 2 1.974V36.02zm6.002-14.368l-4.002-4.195v-5.478c0-2.197-1.85-3.98-4.048-3.98H18.316c-2.197 0-4.048 1.783-4.048 3.98v5.478l-3.996 4.195a1 1 0 00.045 1.414c.194.186.46.279.71.279.263 0 .49-.103.687-.307l2.555-2.694V36.02c0 2.198 1.85 3.979 4.047 3.979H30.22c2.198 0 4.048-1.781 4.048-3.98V20.345l2.555 2.694a.959.959 0 00.703.307c.25 0 .492-.093.686-.28.398-.382.44-1.015.058-1.413zM29.267 33h-10a1 1 0 000 2h10a1 1 0 000-2z" fill="#253238"/></svg>
